X:1
T:Gatans Parlament
R:Gånglåt
C:Sören Johansson
O:Dorotea, Lappland
M:4/4
L:1/16
K:G
Q:1/4=90
D2|: G4 G3A c2 (3BcB A2G2 |B2d2 c2 (5cdcBc d6 c2 | B3A G2A2 c2 (3BcB A2G2 | D4 D3D D6 D2| A4 A3B c2 (3BcB A2G2 | (G,DBD) (G,EcE) d6 c2 | B3A G2E2 D4 F2DF |1 G4 G3G G4 z2 D2:|2 G4 G3G G4 z2 d2 |: d3f f2fg a4 g2 (3fgf | d2fd c2ec d6 c2 | B3A G2B2 d2g2 b2ag| a3b a2g2 a6 d2| d3f f2fg a4 g2 (3fgf | d2fd c2ec d6 c2 | B3A G2E2 D4 F2DF |1 G4 G3G G6 d2 :|2 G4 G3G G8|]

